humanity-icon-theme/Humanity/apps/32/gnome-panel-force-quit.svg

<?xml version="1.0" encoding="UTF-8" standalone="no"?>
<!-- Created with Inkscape (http://www.inkscape.org/) -->

<svg
   xmlns:svg="http://www.w3.org/2000/svg"
   xmlns="http://www.w3.org/2000/svg"
   xmlns:xlink="http://www.w3.org/1999/xlink"
   version="1.0"
   width="32"
   height="32"
   id="svg11300">
  <defs
     id="defs3">
    <linearGradient
       id="linearGradient47870">
      <stop
         id="stop47872"
         style="stop-color:black;stop-opacity:0"
         offset="0" />
      <stop
         id="stop47878"
         style="stop-color:black;stop-opacity:1"
         offset="0.5" />
      <stop
         id="stop47874"
         style="stop-color:black;stop-opacity:0"
         offset="1" />
    </linearGradient>
    <linearGradient
       id="linearGradient51765">
      <stop
         id="stop51767"
         style="stop-color:black;stop-opacity:1"
         offset="0" />
      <stop
         id="stop51769"
         style="stop-color:black;stop-opacity:0"
         offset="1" />
    </linearGradient>
    <linearGradient
       id="linearGradient3315">
      <stop
         id="stop3317"
         style="stop-color:white;stop-opacity:1"
         offset="0" />
      <stop
         id="stop3319"
         style="stop-color:white;stop-opacity:0"
         offset="1" />
    </linearGradient>
    <linearGradient
       id="linearGradient4168">
      <stop
         id="stop4170"
         style="stop-color:#f8cd70;stop-opacity:1"
         offset="0" />
      <stop
         id="stop4172"
         style="stop-color:#cc9110;stop-opacity:1"
         offset="1" />
    </linearGradient>
    <linearGradient
       id="linearGradient2781">
      <stop
         id="stop2783"
         style="stop-color:#505050;stop-opacity:1"
         offset="0" />
      <stop
         id="stop6301"
         style="stop-color:#6e6e6e;stop-opacity:1"
         offset="0.13216467" />
      <stop
         id="stop2785"
         style="stop-color:#8c8c8c;stop-opacity:1"
         offset="1" />
    </linearGradient>
    <linearGradient
       id="linearGradient6457">
      <stop
         id="stop6459"
         style="stop-color:white;stop-opacity:0.94117647"
         offset="0" />
      <stop
         id="stop6461"
         style="stop-color:white;stop-opacity:0.70588237"
         offset="1" />
    </linearGradient>
    <radialGradient
       cx="40.128311"
       cy="9.9661751"
       r="1.0606601"
       fx="40.128311"
       fy="9.9661751"
       id="radialGradient5586"
       xlink:href="#linearGradient4168"
       gradientUnits="userSpaceOnUse"
       gradientTransform="matrix(1.2483653,1.4730455e-6,-1.5064748e-6,1.275589,-29.094775,-6.7128017)" />
    <radialGradient
       cx="40.128311"
       cy="9.9661751"
       r="1.0606601"
       fx="40.128311"
       fy="9.9661751"
       id="radialGradient5589"
       xlink:href="#linearGradient4168"
       gradientUnits="userSpaceOnUse"
       gradientTransform="matrix(1.2483659,1.5058228e-6,-1.5064758e-6,1.2478232,-26.094799,-6.4360843)" />
    <radialGradient
       cx="40.128311"
       cy="9.9661751"
       r="1.0606601"
       fx="40.128311"
       fy="9.9661751"
       id="radialGradient5592"
       xlink:href="#linearGradient4168"
       gradientUnits="userSpaceOnUse"
       gradientTransform="matrix(1.2483653,-1.0647086e-7,1.017767e-7,1.1922915,-23.094789,-5.8825802)" />
    <linearGradient
       x1="24"
       y1="13"
       x2="24"
       y2="40"
       id="linearGradient5595"
       xlink:href="#linearGradient6457"
       gradientUnits="userSpaceOnUse"
       gradientTransform="matrix(0.736842,0,0,0.7037038,-1.6842104,-0.1481475)" />
    <linearGradient
       x1="16.033964"
       y1="9.0734701"
       x2="15.934606"
       y2="38.926552"
       id="linearGradient5598"
       xlink:href="#linearGradient3315"
       gradientUnits="userSpaceOnUse"
       gradientTransform="matrix(0.8709771,0,0,0.8275962,-5.7744294,-4.3623134)" />
    <linearGradient
       x1="21.866402"
       y1="8.5763302"
       x2="21.780495"
       y2="39.923653"
       id="linearGradient5601"
       xlink:href="#linearGradient2781"
       gradientUnits="userSpaceOnUse"
       gradientTransform="matrix(0.8787987,0,0,0.8524721,-5.9699799,-5.1724377)" />
    <radialGradient
       cx="51.4375"
       cy="-12.203125"
       r="2.171875"
       fx="51.4375"
       fy="-12.203125"
       id="radialGradient5676"
       xlink:href="#linearGradient51765"
       gradientUnits="userSpaceOnUse"
       gradientTransform="matrix(-1.5038469,-8.7629875e-8,-9.901147e-8,1.3792839,80.870612,44.620559)" />
    <radialGradient
       cx="51.4375"
       cy="-12.203125"
       r="2.171875"
       fx="51.4375"
       fy="-12.203125"
       id="radialGradient5679"
       xlink:href="#linearGradient51765"
       gradientUnits="userSpaceOnUse"
       gradientTransform="matrix(1.5038469,-7.7141643e-7,5.1172667e-7,1.3792839,-48.981359,44.620594)" />
    <linearGradient
       x1="32.084972"
       y1="-14.402173"
       x2="32.084972"
       y2="-5.5633383"
       id="linearGradient5682"
       xlink:href="#linearGradient47870"
       gradientUnits="userSpaceOnUse"
       gradientTransform="matrix(0.7519234,0,0,0.6774574,-10.174686,34.559095)" />
  </defs>
  <g
     id="g5522">
    <g
       id="g5517">
      <path
         d="m 3.53125,24.8125 0,5.96875 14.8125,0 -4.75,-5.40625 0.5625,-0.5625 -10.625,0 z m 14.46875,0 -0.6875,0.71875 4.625,5.25 6.4375,0 0,-5.96875 -10.375,0 z"
         id="rect46899"
         style="opacity:0.3;fill:url(#linearGradient5682);fill-opacity:1;fill-rule:evenodd;stroke:none" />
      <path
         d="m 28.372758,24.793349 0,5.991264 c 1.800491,-0.02262 3.266167,-1.345973 3.266167,-2.985047 0,-1.639073 -1.465675,-2.983599 -3.266167,-3.006217 z"
         id="path48849"
         style="opacity:0.3;fill:url(#radialGradient5679);fill-opacity:1;fill-rule:evenodd;stroke:none" />
      <path
         d="m 3.5164914,24.793349 0,5.991264 C 1.7159995,30.761994 0.25032399,29.43864 0.25032399,27.799566 c 0,-1.639073 1.46567471,-2.983599 3.26616741,-3.006217 z"
         id="path52742"
         style="opacity:0.3;fill:url(#radialGradient5676);fill-opacity:1;fill-rule:evenodd;stroke:none" />
    </g>
    <path
       d="M 3,2.5 C 2.169,2.5 1.5,3.169 1.5,4 l 0,23 c 0,0.831 0.6690001,1.500001 1.5,1.5 l 13.34375,0 -2.75,-3.125 5.625,-5.78125 L 7,8.9375 15.09375,2.5 3,2.5 z m 16.4375,0 -8.5,6.4375 12.09375,10.59375 -5.71875,6 2.625,2.96875 9.0625,0 c 0.831,0 1.499999,-0.668999 1.5,-1.5 l 0,-23 C 30.5,3.169 29.830999,2.5 29,2.5 l -9.5625,0 z"
       id="rect1887"
       style="fill:url(#linearGradient5601);fill-opacity:1;stroke:#565853;stroke-width:0.99961686;stroke-miterlimit:4;stroke-opacity:1;stroke-dasharray:none" />
    <path
       d="m 3.5,3.5 c -0.554,0 -1,0.446 -1,1 l 0,22 c 0,0.554 0.446,1 1,1 l 11.96875,0 -1.875,-2.125 5.625,-5.78125 L 7,8.9375 13.84375,3.5 3.5,3.5 z m 14.625,0 -7.1875,5.4375 12.09375,10.59375 -5.71875,6 1.71875,1.96875 9.46875,0 c 0.554,0 1,-0.446 1,-1 l 0,-22 c 0,-0.554 -0.446,-1 -1,-1 l -10.375,0 z"
       id="rect2779"
       style="opacity:0.2;fill:none;stroke:url(#linearGradient5598);stroke-width:0.99970365;stroke-miterlimit:4;stroke-opacity:1;stroke-dasharray:none" />
    <path
       d="M 3,9 C 2.446,9 2,9.446 2,10 l 0,17 c 0,0.554 0.446,1 1,1 l 12.90625,0 -2.3125,-2.625 5.625,-5.78125 L 7.0625,9 3,9 z m 8,0 12.03125,10.53125 -5.71875,6 L 19.5,28 29,28 c 0.554,0 1,-0.446 1,-1 L 30,10 C 30,9.446 29.554,9 29,9 L 11,9 z"
       id="rect6287"
       style="fill:url(#linearGradient5595);fill-opacity:1;stroke:none" />
    <path
       d="m 28,6 c 2.39e-4,0.5522147 -0.447546,1 -1,1 -0.552454,0 -1.000239,-0.4477853 -1,-1 -2.39e-4,-0.5522147 0.447546,-1 1,-1 0.552454,0 1.000239,0.4477853 1,1 l 0,0 z"
       id="path6289"
       style="fill:url(#radialGradient5592);fill-opacity:1;stroke:none" />
    <path
       d="M 25,6.0000003 C 25.000238,6.5522145 24.552454,7 23.999999,7 23.447546,7 22.99976,6.5522145 23,6.0000003 22.99976,5.4477854 23.447546,5 23.999999,5 24.552454,5 25.000238,5.4477854 25,6.0000003 l 0,0 z"
       id="path6291"
       style="fill:url(#radialGradient5589);fill-opacity:1;stroke:none" />
    <path
       d="M 22,6.0000003 C 22.000238,6.5522145 21.552454,7 21.000001,7 20.447547,7 19.999761,6.5522145 20,6.0000003 19.999761,5.4477854 20.447547,5 21.000001,5 21.552454,5 22.000238,5.4477854 22,6.0000003 l 0,0 z"
       id="path6293"
       style="fill:url(#radialGradient5586);fill-opacity:1;stroke:none" />
  </g>
</svg>

<?xml version="1.0" encoding="UTF-8" standalone="no"?>
<!-- Created with Inkscape (http://www.inkscape.org/) -->
<svg id="svg11300" xmlns="http://www.w3.org/2000/svg" height="32" width="32" version="1.0" xmlns:xlink="http://www.w3.org/1999/xlink">
 <defs id="defs3">
  <linearGradient id="linearGradient51765">
   <stop id="stop51767" offset="0"/>
   <stop id="stop51769" style="stop-opacity:0" offset="1"/>
  </linearGradient>
  <linearGradient id="linearGradient4168">
   <stop id="stop4170" style="stop-color:#f8cd70" offset="0"/>
   <stop id="stop4172" style="stop-color:#cc9110" offset="1"/>
  </linearGradient>
  <radialGradient id="radialGradient5586" xlink:href="#linearGradient4168" gradientUnits="userSpaceOnUse" cy="9.9662" cx="40.128" gradientTransform="matrix(1.2484 .0000014730 -.0000015065 1.2756 -29.095 -6.7128)" r="1.0607"/>
  <radialGradient id="radialGradient5589" xlink:href="#linearGradient4168" gradientUnits="userSpaceOnUse" cy="9.9662" cx="40.128" gradientTransform="matrix(1.2484 .0000015058 -.0000015065 1.2478 -26.095 -6.4361)" r="1.0607"/>
  <radialGradient id="radialGradient5592" xlink:href="#linearGradient4168" gradientUnits="userSpaceOnUse" cy="9.9662" cx="40.128" gradientTransform="matrix(1.2484 -1.0647e-7 1.0178e-7 1.1923 -23.095 -5.8826)" r="1.0607"/>
  <linearGradient id="linearGradient5595" y2="40" gradientUnits="userSpaceOnUse" x2="24" gradientTransform="matrix(.73684 0 0 .70370 -1.6842 -.14815)" y1="13" x1="24">
   <stop id="stop6459" style="stop-color:#fff;stop-opacity:.94118" offset="0"/>
   <stop id="stop6461" style="stop-color:#fff;stop-opacity:.70588" offset="1"/>
  </linearGradient>
  <linearGradient id="linearGradient5598" y2="38.927" gradientUnits="userSpaceOnUse" x2="15.935" gradientTransform="matrix(.87098 0 0 .82760 -5.7744 -4.3623)" y1="9.0735" x1="16.034">
   <stop id="stop3317" style="stop-color:#fff" offset="0"/>
   <stop id="stop3319" style="stop-color:#fff;stop-opacity:0" offset="1"/>
  </linearGradient>
  <linearGradient id="linearGradient5601" y2="39.924" gradientUnits="userSpaceOnUse" x2="21.78" gradientTransform="matrix(.87880 0 0 .85247 -5.97 -5.1724)" y1="8.5763" x1="21.866">
   <stop id="stop2783" style="stop-color:#505050" offset="0"/>
   <stop id="stop6301" style="stop-color:#6e6e6e" offset=".13216"/>
   <stop id="stop2785" style="stop-color:#8c8c8c" offset="1"/>
  </linearGradient>
  <radialGradient id="radialGradient5676" xlink:href="#linearGradient51765" gradientUnits="userSpaceOnUse" cy="-12.203" cx="51.438" gradientTransform="matrix(-1.5038 -8.763e-8 -9.9011e-8 1.3793 80.871 44.621)" r="2.1719"/>
  <radialGradient id="radialGradient5679" xlink:href="#linearGradient51765" gradientUnits="userSpaceOnUse" cy="-12.203" cx="51.438" gradientTransform="matrix(1.5038 -7.7142e-7 5.1173e-7 1.3793 -48.981 44.621)" r="2.1719"/>
  <linearGradient id="linearGradient5682" y2="-5.5633" gradientUnits="userSpaceOnUse" x2="32.085" gradientTransform="matrix(.75192 0 0 .67746 -10.175 34.559)" y1="-14.402" x1="32.085">
   <stop id="stop47872" style="stop-opacity:0" offset="0"/>
   <stop id="stop47878" offset=".5"/>
   <stop id="stop47874" style="stop-opacity:0" offset="1"/>
  </linearGradient>
 </defs>
 <g id="g5522">
  <g id="g5517">
   <path id="rect46899" style="opacity:.3;fill:url(#linearGradient5682);fill-rule:evenodd" d="m3.5312 24.812v5.9688h14.812l-4.75-5.4062 0.5625-0.5625h-10.625zm14.469 0-0.6875 0.71875 4.625 5.25h6.4375v-5.9688h-10.375z"/>
   <path id="path48849" style="opacity:.3;fill:url(#radialGradient5679);fill-rule:evenodd" d="m28.373 24.793v5.9913c1.8005-0.02262 3.2662-1.346 3.2662-2.985 0-1.6391-1.4657-2.9836-3.2662-3.0062z"/>
   <path id="path52742" style="opacity:.3;fill:url(#radialGradient5676);fill-rule:evenodd" d="m3.5165 24.793v5.9913c-1.8005-0.022-3.2662-1.345-3.2662-2.984 0-1.6391 1.4657-2.9836 3.2662-3.0062z"/>
  </g>
  <path id="rect1887" style="stroke:#565853;stroke-width:.99962;fill:url(#linearGradient5601)" d="m3 2.5c-0.831 0-1.5 0.669-1.5 1.5v23c0 0.831 0.669 1.5 1.5 1.5h13.344l-2.75-3.125 5.625-5.7812-12.219-10.656 8.094-6.438h-12.094zm16.438 0-8.5 6.4375 12.094 10.594-5.7188 6 2.625 2.9688h9.0625c0.831 0 1.5-0.669 1.5-1.5v-23c0-0.832-0.669-1.501-1.5-1.501h-9.5625z"/>
  <path id="rect2779" style="opacity:.2;stroke:url(#linearGradient5598);stroke-width:.99970;fill:none" d="m3.5 3.5c-0.554 0-1 0.446-1 1v22c0 0.554 0.446 1 1 1h11.969l-1.875-2.125 5.625-5.7812-12.219-10.656 6.844-5.438h-10.344zm14.625 0-7.1875 5.4375 12.094 10.594-5.7188 6 1.7188 1.9688h9.4688c0.554 0 1-0.446 1-1v-22c0-0.554-0.446-1-1-1h-10.375z"/>
  <path id="rect6287" style="fill:url(#linearGradient5595)" d="m3 9c-0.554 0-1 0.446-1 1v17c0 0.554 0.446 1 1 1h12.906l-2.3125-2.625 5.625-5.7812-12.156-10.594h-4.063zm8 0 12.031 10.531-5.7188 6l2.188 2.469h9.5c0.554 0 1-0.446 1-1v-17c0-0.554-0.446-1-1-1h-18z"/>
  <path id="path6289" style="fill:url(#radialGradient5592)" d="m28 6c0.000239 0.55221-0.44755 1-1 1s-1.0002-0.44779-1-1c-0.000239-0.55221 0.44755-1 1-1s1.0002 0.44779 1 1z"/>
  <path id="path6291" style="fill:url(#radialGradient5589)" d="m25 6c0 0.5522-0.448 1-1 1s-1-0.4478-1-1 0.448-1 1-1 1 0.4478 1 1z"/>
  <path id="path6293" style="fill:url(#radialGradient5586)" d="m22 6c0 0.5522-0.448 1-1 1s-1-0.4478-1-1 0.448-1 1-1 1 0.4478 1 1z"/>
 </g>
</svg>
